X: 25475
T: Marchioness Of Huntly, The
R: strathspey
M: 4/4
K: Amajor
|:A|C>DE>C D<F E2|F<B B>c d/c/B/A/ G/F/E/D/|C>DE>C D<F E2|F<B A/G/F/E/ A2A:|
d|c<eA>e c>e d/c/B/A/|G<BE>B G<BE>d|c<eA>e c>e d/c/B/A/|G<BE>G A3d|
c<eA>c (3efg a2|F<B B>c d/c/B/A/ G/F/E/D/|C>DE>C D<F E2|F<B A/G/F/E/ A2A||

